X:1
T:Young But He's Growin' Yet
M:4/4
L:1/8
K:C
 C2| ED EGF-ED-C| GE GA G3 G|c-B-c dc BA-G| ED EG A3 A| c2 BA c2B-A|\
 cc c d/2e/2 E2D-C| GE DC D2 GF| E2 A3/2- B/2 A2||
